X:45
T:est da vong
R:reel
M:4/4
L:1/8
K:D
| "D"A~F3 "D"ABde | "D"~f3d "Bm"edBd| "D"A~F3 "D"ABde| "D"fdef "Bm"d2 dB|
  "D"A~F3 "D"ABde | "D"~f3d "Bm"edBd| "D"A~F3 "D"ABde| "D"fdef "D"d3f|
| "Em"~g3e "D"~f3d | "Em"edef "Em"edBA|"Em"~g3e "D"f2 fd| "Em"edef "D"~a3f|
| "Em"~g3e "D"~f3d | "Em"edef "Bm"edBd| "D"A~F3 "D"ABde| "F#m"faec "Bm"d2 dB|
